packages/core/src/svgs/tao.svg

<svg width="24" height="24" viewBox="0 0 24 24" fill="none" xmlns="http://www.w3.org/2000/svg">
<g clip-path="url(#clip0_31_19589)">
<path d="M0 0H24V24H0V0Z" fill="url(#paint0_linear_31_19589)"/>
<path d="M18.6856 11.293L16.6028 13.1315C16.6756 13.2515 16.7013 13.4058 16.6542 13.5515C16.6113 13.6844 16.5256 13.7915 16.4099 13.8473L16.9371 16.7015C17.1895 16.6308 17.4046 16.4649 17.5371 16.2387C17.837 15.7583 18.03 15.2189 18.1028 14.6573C18.1499 14.2844 18.2613 13.9201 18.4328 13.5858C18.6899 13.0801 18.8356 12.5144 18.8571 11.953C18.8656 11.6958 18.8013 11.473 18.6856 11.293Z" fill="url(#paint1_linear_31_19589)"/>
<path d="M15.8143 13.1656C15.8723 13.0588 15.9703 12.9794 16.0869 12.9448C16.2034 12.9103 16.3289 12.9234 16.4357 12.9813L18.5443 11.1256C18.1757 10.7698 17.5586 10.667 16.9886 10.8556L13.3457 12.0941C13.2618 12.1236 13.1906 12.1811 13.1443 12.257L15.81 13.1656H15.8143Z" fill="#EA302A"/>
<path d="M15.3987 15.9986C15.7244 16.47 16.2387 16.77 16.7101 16.7529L16.183 13.9158C16.1487 13.9158 16.1101 13.9072 16.0715 13.8943C15.9735 13.859 15.8891 13.7936 15.8306 13.7073C15.7721 13.6211 15.7424 13.5185 15.7458 13.4143L13.0715 12.5015C13.0715 12.5786 13.093 12.66 13.1444 12.7329L15.3987 15.9986Z" fill="url(#paint2_linear_31_19589)"/>
<path d="M14.6872 18.3427L12.3857 16.8213C12.3 16.9327 12.1714 17.0056 12.0214 17.0056C11.8929 17.0056 11.7643 16.9456 11.6829 16.8513L9.27002 18.2656C9.39859 18.4756 9.59573 18.6384 9.87002 18.7199C10.3843 18.8699 10.9414 18.8999 11.4729 18.797C11.8269 18.73 12.1903 18.73 12.5443 18.797C13.0757 18.8999 13.6329 18.8699 14.1472 18.7156C14.3829 18.647 14.5629 18.5141 14.6872 18.347V18.3427Z" fill="url(#paint3_linear_31_19589)"/>
<path d="M12.1115 16.0202C12.2322 16.0499 12.3371 16.1245 12.4048 16.2288C12.4725 16.3331 12.4979 16.4593 12.4757 16.5817L14.8029 18.1202C15.0129 17.6402 14.9143 16.9888 14.5629 16.4788L12.3215 13.2217C12.2704 13.1466 12.1945 13.092 12.1072 13.0674V16.0202H12.1115Z" fill="url(#paint4_linear_31_19589)"/>
<path d="M9.41993 16.4916C9.26014 16.7111 9.15208 16.9639 9.10384 17.2311C9.0556 17.4983 9.06842 17.7729 9.14135 18.0345L11.5499 16.633C11.5395 16.5939 11.5337 16.5536 11.5328 16.513C11.5328 16.2902 11.6742 16.1016 11.8671 16.0416V13.0845C11.7904 13.1119 11.7244 13.1629 11.6785 13.2302L9.41993 16.4873V16.4916Z" fill="url(#paint5_linear_31_19589)"/>
<path d="M7.39714 13.1315L5.30999 11.293C5.19857 11.473 5.13428 11.6915 5.14285 11.953C5.16428 12.5101 5.31428 13.0801 5.57142 13.5858C5.73857 13.9201 5.84999 14.2844 5.89714 14.6573C5.96934 15.2204 6.16231 15.7613 6.46285 16.243C6.62142 16.4915 6.83142 16.6373 7.06285 16.7015L7.58999 13.8473C7.53128 13.8172 7.47933 13.7755 7.43733 13.7246C7.39532 13.6738 7.36414 13.6149 7.34571 13.5515C7.29857 13.4058 7.32428 13.2515 7.39714 13.1315Z" fill="url(#paint6_linear_31_19589)"/>
<path d="M7.30713 16.7398C7.77856 16.757 8.29284 16.4612 8.61856 15.9855L10.8686 12.7284C10.9159 12.6589 10.9413 12.5768 10.9414 12.4927L8.27141 13.4055C8.27141 13.6198 8.14713 13.8127 7.9457 13.8855C7.90713 13.8984 7.86856 13.9027 7.82999 13.907L7.30713 16.7398Z" fill="url(#paint7_linear_31_19589)"/>
<path d="M7.64153 12.9555C7.85581 12.8827 8.08295 12.9769 8.1901 13.1741L10.8644 12.2612C10.8159 12.1864 10.7433 12.1305 10.6587 12.1027L7.01581 10.8598C6.44581 10.6712 5.82438 10.7741 5.45581 11.1341L7.56867 12.9855L7.64153 12.9555Z" fill="#DA181F"/>
<path d="M14.4472 7.84281L13.4358 5.18566C13.6329 5.12138 13.8515 5.12566 14.0786 5.21566C14.5941 5.41785 15.0561 5.73608 15.4286 6.14566C15.6748 6.41745 15.9681 6.6425 16.2944 6.80995C16.7862 7.06366 17.214 7.42559 17.5458 7.86852C17.7215 8.10424 17.7901 8.35709 17.7772 8.60566L15.0344 8.25424C15.0215 8.12566 14.9572 8.00138 14.8501 7.91995C14.7945 7.87645 14.7294 7.84678 14.6601 7.83337C14.5908 7.81995 14.5193 7.82319 14.4515 7.84281H14.4472Z" fill="url(#paint8_linear_31_19589)"/>
<path d="M14.4472 7.84281L13.4358 5.18566C13.6329 5.12138 13.8515 5.12566 14.0786 5.21566C14.5941 5.41785 15.0561 5.73608 15.4286 6.14566C15.6748 6.41745 15.9681 6.6425 16.2944 6.80995C16.7862 7.06366 17.214 7.42559 17.5458 7.86852C17.7215 8.10424 17.7901 8.35709 17.7772 8.60566L15.0344 8.25424C15.0215 8.12566 14.9572 8.00138 14.8501 7.91995C14.7945 7.87645 14.7294 7.84678 14.6601 7.83337C14.5908 7.81995 14.5193 7.82319 14.4515 7.84281H14.4472Z" fill="url(#paint9_radial_31_19589)" fill-opacity="0.2"/>
<path d="M14.0914 8.04852C13.9628 8.24138 13.9799 8.49852 14.1214 8.66995L12.5099 11.0528C12.4558 10.9781 12.4273 10.8879 12.4285 10.7957L12.4328 6.77995C12.4328 6.14995 12.7156 5.56281 13.1442 5.30566L14.1428 7.98852L14.0914 8.04852Z" fill="url(#paint10_linear_31_19589)"/>
<path d="M14.0914 8.04852C13.9628 8.24138 13.9799 8.49852 14.1214 8.66995L12.5099 11.0528C12.4558 10.9781 12.4273 10.8879 12.4285 10.7957L12.4328 6.77995C12.4328 6.14995 12.7156 5.56281 13.1442 5.30566L14.1428 7.98852L14.0914 8.04852Z" fill="url(#paint11_radial_31_19589)" fill-opacity="0.2"/>
<path d="M17.7599 8.87156C17.6771 9.1255 17.5353 9.35619 17.3461 9.54468C17.1568 9.73317 16.9256 9.87408 16.6713 9.95584L13.0199 11.1987C12.9434 11.2245 12.8606 11.2245 12.7842 11.1987L14.4385 8.80727C14.627 8.88013 14.8456 8.81156 14.9742 8.63584C14.9956 8.59727 15.017 8.56299 15.0299 8.52441L17.7599 8.87584V8.87156Z" fill="url(#paint12_linear_31_19589)"/>
<path d="M17.7599 8.87156C17.6771 9.1255 17.5353 9.35619 17.3461 9.54468C17.1568 9.73317 16.9256 9.87408 16.6713 9.95584L13.0199 11.1987C12.9434 11.2245 12.8606 11.2245 12.7842 11.1987L14.4385 8.80727C14.627 8.88013 14.8456 8.81156 14.9742 8.63584C14.9956 8.59727 15.017 8.56299 15.0299 8.52441L17.7599 8.87584V8.87156Z" fill="url(#paint13_radial_31_19589)" fill-opacity="0.2"/>
<path d="M10.7014 5.18555L9.68995 7.84269C9.56137 7.79983 9.41137 7.82555 9.29137 7.91983C9.18423 8.00555 9.11995 8.12555 9.1028 8.25412L6.36852 8.60555C6.35137 8.35698 6.41995 8.10412 6.59566 7.86841C6.92741 7.42548 7.35528 7.06355 7.84709 6.80983C8.17333 6.64238 8.46662 6.41733 8.7128 6.14555C9.08417 5.73651 9.5446 5.41831 10.0585 5.21555C10.2857 5.12983 10.5042 5.12126 10.7014 5.18126V5.18555Z" fill="url(#paint14_linear_31_19589)"/>
<path d="M7.48297 9.95145C7.22979 9.86984 6.99954 9.72943 6.81108 9.54171C6.62261 9.35399 6.48129 9.1243 6.39868 8.87145L9.1244 8.52002C9.13725 8.55859 9.15868 8.59288 9.18011 8.62716C9.30868 8.80716 9.52297 8.87573 9.71582 8.80288L11.3658 11.1943C11.2894 11.2201 11.2066 11.2201 11.1301 11.1943L7.48725 9.95145H7.48297Z" fill="url(#paint15_linear_31_19589)"/>
<path d="M9.87861 8.66995C9.95714 8.57258 9.99816 8.45029 9.99423 8.32526C9.9903 8.20024 9.94167 8.08076 9.85718 7.98852L10.8557 5.30566C11.2843 5.56281 11.5629 6.15424 11.5672 6.77995L11.5715 10.8085C11.5718 10.8993 11.5433 10.9878 11.49 11.0614L9.87861 8.66995Z" fill="url(#paint16_linear_31_19589)"/>
</g>
<defs>
<linearGradient id="paint0_linear_31_19589" x1="4.46571" y1="4.16143" x2="29.2071" y2="32.58" gradientUnits="userSpaceOnUse">
<stop stop-color="#1A1E21"/>
<stop offset="1" stop-color="#06060A"/>
</linearGradient>
<linearGradient id="paint1_linear_31_19589" x1="15.2742" y1="12.3258" x2="17.5799" y2="15.3558" gradientUnits="userSpaceOnUse">
<stop offset="0.46" stop-color="#EA302A"/>
<stop offset="1" stop-color="#C5151B"/>
</linearGradient>
<linearGradient id="paint2_linear_31_19589" x1="15.2744" y1="12.3258" x2="17.5801" y2="15.3558" gradientUnits="userSpaceOnUse">
<stop offset="0.46" stop-color="#EA302A"/>
<stop offset="1" stop-color="#C5151B"/>
</linearGradient>
<linearGradient id="paint3_linear_31_19589" x1="11.97" y1="18.857" x2="11.97" y2="16.6113" gradientUnits="userSpaceOnUse">
<stop stop-color="#AF0F14"/>
<stop offset="1" stop-color="#DA181F"/>
</linearGradient>
<linearGradient id="paint4_linear_31_19589" x1="11.97" y1="18.8574" x2="11.97" y2="16.6117" gradientUnits="userSpaceOnUse">
<stop stop-color="#AF0F14"/>
<stop offset="1" stop-color="#DA181F"/>
</linearGradient>
<linearGradient id="paint5_linear_31_19589" x1="11.9699" y1="18.8573" x2="11.9699" y2="16.6116" gradientUnits="userSpaceOnUse">
<stop stop-color="#AF0F14"/>
<stop offset="1" stop-color="#DA181F"/>
</linearGradient>
<linearGradient id="paint6_linear_31_19589" x1="5.14285" y1="15.4287" x2="7.60714" y2="13.8773" gradientUnits="userSpaceOnUse">
<stop stop-color="#AF0F14"/>
<stop offset="0.87" stop-color="#DA181F"/>
</linearGradient>
<linearGradient id="paint7_linear_31_19589" x1="5.14284" y1="15.4284" x2="7.60713" y2="13.877" gradientUnits="userSpaceOnUse">
<stop stop-color="#AF0F14"/>
<stop offset="0.87" stop-color="#DA181F"/>
</linearGradient>
<linearGradient id="paint8_linear_31_19589" x1="15.1329" y1="6.08995" x2="12.3558" y2="10.4057" gradientUnits="userSpaceOnUse">
<stop stop-color="#F9B198"/>
<stop offset="1" stop-color="#EE1C25"/>
</linearGradient>
<radialGradient id="paint9_radial_31_19589" cx="0" cy="0" r="1" gradientUnits="userSpaceOnUse" gradientTransform="translate(14.3444 9.07281) rotate(-49.9337) scale(1.62209 1.46065)">
<stop stop-color="#F1373A"/>
<stop offset="1" stop-color="#EC5F33"/>
</radialGradient>
<linearGradient id="paint10_linear_31_19589" x1="14.9828" y1="6.08995" x2="12.1842" y2="10.3457" gradientUnits="userSpaceOnUse">
<stop stop-color="#F9B198"/>
<stop offset="1" stop-color="#EE1C25"/>
</linearGradient>
<radialGradient id="paint11_radial_31_19589" cx="0" cy="0" r="1" gradientUnits="userSpaceOnUse" gradientTransform="translate(14.2114 9.07281) rotate(-50.6025) scale(1.60642 1.44029)">
<stop stop-color="#F1373A"/>
<stop offset="1" stop-color="#EC5F33"/>
</radialGradient>
<linearGradient id="paint12_linear_31_19589" x1="15.1328" y1="6.09013" x2="12.3556" y2="10.4058" gradientUnits="userSpaceOnUse">
<stop stop-color="#F9B198"/>
<stop offset="1" stop-color="#EE1C25"/>
</linearGradient>
<radialGradient id="paint13_radial_31_19589" cx="0" cy="0" r="1" gradientUnits="userSpaceOnUse" gradientTransform="translate(14.3442 9.07299) rotate(-49.9337) scale(1.62209 1.46065)">
<stop stop-color="#F1373A"/>
<stop offset="1" stop-color="#EC5F33"/>
</radialGradient>
<linearGradient id="paint14_linear_31_19589" x1="8.21995" y1="6.44126" x2="11.5157" y2="12.047" gradientUnits="userSpaceOnUse">
<stop stop-color="#EE2729"/>
<stop offset="1" stop-color="#EE1C25"/>
</linearGradient>
<linearGradient id="paint15_linear_31_19589" x1="8.22011" y1="6.44145" x2="11.5158" y2="12.0472" gradientUnits="userSpaceOnUse">
<stop stop-color="#EE2729"/>
<stop offset="1" stop-color="#EE1C25"/>
</linearGradient>
<linearGradient id="paint16_linear_31_19589" x1="8.24146" y1="6.44138" x2="11.58" y2="11.9742" gradientUnits="userSpaceOnUse">
<stop stop-color="#EE2729"/>
<stop offset="1" stop-color="#EE1C25"/>
</linearGradient>
<clipPath id="clip0_31_19589">
<rect width="24" height="24" fill="white"/>
</clipPath>
</defs>
</svg>

<svg xmlns="http://www.w3.org/2000/svg" width="24" height="24" fill="none" viewBox="0 0 24 24"><g clip-path="url(#a)"><path fill="url(#b)" d="M0 0h24v24H0z"/><path fill="url(#c)" d="m18.686 11.293-2.083 1.839a.51.51 0 0 1-.193.715l.527 2.855c.252-.071.468-.237.6-.463.3-.48.493-1.02.566-1.582.047-.373.158-.737.33-1.071a4 4 0 0 0 .424-1.633 1.13 1.13 0 0 0-.171-.66"/><path fill="#EA302A" d="M15.814 13.166a.46.46 0 0 1 .622-.185l2.108-1.855c-.368-.356-.985-.459-1.555-.27l-3.643 1.238a.4.4 0 0 0-.202.163l2.666.909z"/><path fill="url(#d)" d="M15.399 15.999c.325.471.84.771 1.311.754l-.527-2.837a.4.4 0 0 1-.111-.022.49.49 0 0 1-.326-.48l-2.674-.912a.4.4 0 0 0 .072.23z"/><path fill="url(#e)" d="m14.687 18.343-2.301-1.522a.46.46 0 0 1-.365.185.46.46 0 0 1-.338-.155L9.27 18.266c.129.21.326.372.6.454.514.15 1.071.18 1.603.077a2.9 2.9 0 0 1 1.071 0 3.4 3.4 0 0 0 1.603-.081c.236-.069.416-.202.54-.369z"/><path fill="url(#f)" d="M12.112 16.02a.49.49 0 0 1 .364.562l2.327 1.538c.21-.48.111-1.131-.24-1.641l-2.242-3.257a.4.4 0 0 0-.214-.155v2.953z"/><path fill="url(#g)" d="M9.42 16.492a1.8 1.8 0 0 0-.279 1.543l2.409-1.402a.49.49 0 0 1 .317-.591v-2.958a.4.4 0 0 0-.189.146L9.42 16.487z"/><path fill="url(#h)" d="M7.397 13.132 5.31 11.293c-.111.18-.176.399-.167.66.021.557.171 1.127.428 1.633.168.334.279.698.326 1.071.072.563.265 1.104.566 1.586.158.248.368.394.6.459l.527-2.855a.48.48 0 0 1-.244-.295.51.51 0 0 1 .051-.42"/><path fill="url(#i)" d="M7.307 16.74c.472.017.986-.279 1.312-.754l2.25-3.258a.4.4 0 0 0 .072-.235l-2.67.912a.5.5 0 0 1-.325.48q-.058.018-.116.022z"/><path fill="#DA181F" d="M7.642 12.956a.455.455 0 0 1 .548.218l2.674-.913a.4.4 0 0 0-.205-.158L7.016 10.86c-.57-.189-1.192-.086-1.56.274l2.113 1.851z"/><path fill="url(#j)" d="m14.447 7.843-1.011-2.657a.93.93 0 0 1 .643.03c.515.202.977.52 1.35.93.246.271.54.497.865.664.492.254.92.616 1.252 1.059.175.235.244.488.231.737l-2.743-.352a.48.48 0 0 0-.184-.334.45.45 0 0 0-.399-.077z"/><path fill="url(#k)" fill-opacity=".2" d="m14.447 7.843-1.011-2.657a.93.93 0 0 1 .643.03c.515.202.977.52 1.35.93.246.271.54.497.865.664.492.254.92.616 1.252 1.059.175.235.244.488.231.737l-2.743-.352a.48.48 0 0 0-.184-.334.45.45 0 0 0-.399-.077z"/><path fill="url(#l)" d="M14.091 8.049a.53.53 0 0 0 .03.621l-1.611 2.383a.43.43 0 0 1-.082-.257l.005-4.016c0-.63.283-1.217.711-1.474l.999 2.683z"/><path fill="url(#m)" fill-opacity=".2" d="M14.091 8.049a.53.53 0 0 0 .03.621l-1.611 2.383a.43.43 0 0 1-.082-.257l.005-4.016c0-.63.283-1.217.711-1.474l.999 2.683z"/><path fill="url(#n)" d="M17.76 8.872a1.69 1.69 0 0 1-1.089 1.084l-3.651 1.243a.37.37 0 0 1-.236 0l1.654-2.392a.46.46 0 0 0 .536-.171c.022-.039.043-.073.056-.112l2.73.352z"/><path fill="url(#o)" fill-opacity=".2" d="M17.76 8.872a1.69 1.69 0 0 1-1.089 1.084l-3.651 1.243a.37.37 0 0 1-.236 0l1.654-2.392a.46.46 0 0 0 .536-.171c.022-.039.043-.073.056-.112l2.73.352z"/><path fill="url(#p)" d="M10.701 5.186 9.69 7.843a.43.43 0 0 0-.399.077.5.5 0 0 0-.188.334l-2.734.352a1.1 1.1 0 0 1 .227-.738A3.66 3.66 0 0 1 7.847 6.81c.326-.168.62-.393.866-.664a3.6 3.6 0 0 1 1.346-.93 1 1 0 0 1 .642-.035z"/><path fill="url(#q)" d="M7.483 9.951a1.68 1.68 0 0 1-1.084-1.08l2.725-.351a.5.5 0 0 0 .056.107c.129.18.343.249.536.176l1.65 2.391a.37.37 0 0 1-.236 0L7.487 9.951z"/><path fill="url(#r)" d="M9.879 8.67a.52.52 0 0 0-.022-.681l.999-2.683c.428.257.707.848.711 1.474l.005 4.029c0 .09-.029.179-.082.252z"/></g><defs><linearGradient id="b" x1="4.466" x2="29.207" y1="4.161" y2="32.58" gradientUnits="userSpaceOnUse"><stop stop-color="#1A1E21"/><stop offset="1" stop-color="#06060A"/></linearGradient><linearGradient id="c" x1="15.274" x2="17.58" y1="12.326" y2="15.356" gradientUnits="userSpaceOnUse"><stop offset=".46" stop-color="#EA302A"/><stop offset="1" stop-color="#C5151B"/></linearGradient><linearGradient id="d" x1="15.274" x2="17.58" y1="12.326" y2="15.356" gradientUnits="userSpaceOnUse"><stop offset=".46" stop-color="#EA302A"/><stop offset="1" stop-color="#C5151B"/></linearGradient><linearGradient id="e" x1="11.97" x2="11.97" y1="18.857" y2="16.611" gradientUnits="userSpaceOnUse"><stop stop-color="#AF0F14"/><stop offset="1" stop-color="#DA181F"/></linearGradient><linearGradient id="f" x1="11.97" x2="11.97" y1="18.857" y2="16.612" gradientUnits="userSpaceOnUse"><stop stop-color="#AF0F14"/><stop offset="1" stop-color="#DA181F"/></linearGradient><linearGradient id="g" x1="11.97" x2="11.97" y1="18.857" y2="16.612" gradientUnits="userSpaceOnUse"><stop stop-color="#AF0F14"/><stop offset="1" stop-color="#DA181F"/></linearGradient><linearGradient id="h" x1="5.143" x2="7.607" y1="15.429" y2="13.877" gradientUnits="userSpaceOnUse"><stop stop-color="#AF0F14"/><stop offset=".87" stop-color="#DA181F"/></linearGradient><linearGradient id="i" x1="5.143" x2="7.607" y1="15.428" y2="13.877" gradientUnits="userSpaceOnUse"><stop stop-color="#AF0F14"/><stop offset=".87" stop-color="#DA181F"/></linearGradient><linearGradient id="j" x1="15.133" x2="12.356" y1="6.09" y2="10.406" gradientUnits="userSpaceOnUse"><stop stop-color="#F9B198"/><stop offset="1" stop-color="#EE1C25"/></linearGradient><linearGradient id="l" x1="14.983" x2="12.184" y1="6.09" y2="10.346" gradientUnits="userSpaceOnUse"><stop stop-color="#F9B198"/><stop offset="1" stop-color="#EE1C25"/></linearGradient><linearGradient id="n" x1="15.133" x2="12.356" y1="6.09" y2="10.406" gradientUnits="userSpaceOnUse"><stop stop-color="#F9B198"/><stop offset="1" stop-color="#EE1C25"/></linearGradient><linearGradient id="p" x1="8.22" x2="11.516" y1="6.441" y2="12.047" gradientUnits="userSpaceOnUse"><stop stop-color="#EE2729"/><stop offset="1" stop-color="#EE1C25"/></linearGradient><linearGradient id="q" x1="8.22" x2="11.516" y1="6.441" y2="12.047" gradientUnits="userSpaceOnUse"><stop stop-color="#EE2729"/><stop offset="1" stop-color="#EE1C25"/></linearGradient><linearGradient id="r" x1="8.241" x2="11.58" y1="6.441" y2="11.974" gradientUnits="userSpaceOnUse"><stop stop-color="#EE2729"/><stop offset="1" stop-color="#EE1C25"/></linearGradient><radialGradient id="k" cx="0" cy="0" r="1" gradientTransform="matrix(1.0441 -1.24139 1.11784 .94018 14.344 9.073)" gradientUnits="userSpaceOnUse"><stop stop-color="#F1373A"/><stop offset="1" stop-color="#EC5F33"/></radialGradient><radialGradient id="m" cx="0" cy="0" r="1" gradientTransform="matrix(1.01959 -1.24138 1.113 .91415 14.211 9.073)" gradientUnits="userSpaceOnUse"><stop stop-color="#F1373A"/><stop offset="1" stop-color="#EC5F33"/></radialGradient><radialGradient id="o" cx="0" cy="0" r="1" gradientTransform="matrix(1.0441 -1.24139 1.11784 .94018 14.344 9.073)" gradientUnits="userSpaceOnUse"><stop stop-color="#F1373A"/><stop offset="1" stop-color="#EC5F33"/></radialGradient><clipPath id="a"><path fill="#fff" d="M0 0h24v24H0z"/></clipPath></defs></svg>
